packages/icons/src/lib/svgs/eye.svg

<svg
        aria-hidden="true"
        data-testid="test-icon"
        fill="none"
        
        viewBox="0 0 24 24"
        
        xmlns="http://www.w3.org/2000/svg"
        
    >
        <title>eye icon</title>
        <path
            d="M16 11.995C16 14.2036 14.21 15.9925 12 15.9925C9.79 15.9925 8 14.2036 8 11.995C8 11.5853 8.08 11.2055 8.19 10.8357C8.51 11.5153 9.2 11.995 10 11.995C11.1 11.995 12 11.0956 12 9.99625C12 9.19675 11.52 8.50718 10.84 8.18738C11.21 8.07745 11.59 7.9975 12 7.9975C14.21 7.9975 16 9.78638 16 11.995ZM21.94 11.6552C21.98 11.7651 22 11.8851 22 12.005C22 12.1249 21.98 12.2448 21.94 12.3548C21.8 12.7445 21.63 13.1243 21.45 13.4941C21.45 13.4941 21.45 13.4941 21.45 13.5041C19.56 17.4916 15.96 20.01 12 20.01C9.02 20.01 6.23 18.5809 4.23 16.1724C3.48 15.2929 2.87 14.2936 2.41 13.2142C2.29 12.9344 2.17 12.6446 2.06 12.3548C2.02 12.2448 2 12.1249 2 12.005C2 11.8851 2.02 11.7651 2.06 11.6552C2.17 11.3654 2.29 11.0756 2.41 10.7958C2.87 9.71643 3.48 8.72705 4.23 7.8476C6.23 5.42911 9.02 4 12 4C15.96 4 19.55 6.51843 21.45 10.5059C21.45 10.5059 21.45 10.5059 21.45 10.5159C21.63 10.8757 21.79 11.2555 21.94 11.6552ZM19.92 12.005C19.89 11.925 19.85 11.8551 19.82 11.7751C19.7 11.4853 19.56 11.2155 19.42 10.9457C19.34 10.8057 19.27 10.6558 19.19 10.5159C17.56 7.72767 14.89 5.99875 12 5.99875C11.35 5.99875 10.71 6.10868 10.09 6.27858C8.79 6.67833 7.61 7.3579 6.62 8.24735C6.55 8.30731 6.48 8.35728 6.42 8.42723C6.35 8.4872 6.28 8.56715 6.21 8.6371C5.37 9.52655 4.66 10.6159 4.13 11.8651C4.12 11.9151 4.09 11.955 4.08 12.005C4.09 12.045 4.12 12.0949 4.13 12.1349C4.65 13.3841 5.36 14.4735 6.21 15.3629C6.28 15.4329 6.34 15.5128 6.42 15.5828C6.48 15.6427 6.56 15.7027 6.62 15.7626C7.61 16.6521 8.79 17.3217 10.09 17.7314C10.71 17.9013 11.35 18.0112 12 18.0112C14.89 18.0112 17.56 16.2823 19.19 13.4941C19.27 13.3542 19.35 13.2142 19.42 13.0643C19.56 12.7945 19.69 12.5247 19.82 12.2349C19.86 12.1549 19.89 12.075 19.92 12.005Z"
            fill="currentColor"
        />
    </svg>

<svg aria-hidden="true" data-testid="test-icon" fill="currentColor" viewBox="0 0 24 24" xmlns="http://www.w3.org/2000/svg"><path d="M16 11.995a3.998 3.998 0 01-4 3.998c-2.21 0-4-1.79-4-3.998 0-.41.08-.79.19-1.16.32.68 1.01 1.16 1.81 1.16 1.1 0 2-.9 2-1.999 0-.8-.48-1.489-1.16-1.809.37-.11.75-.19 1.16-.19 2.21 0 4 1.79 4 3.998zm5.94-.34a1.029 1.029 0 010 .7c-.14.39-.31.77-.49 1.14v.01c-1.89 3.987-5.49 6.505-9.45 6.505-2.98 0-5.77-1.43-7.77-3.838-.75-.88-1.36-1.878-1.82-2.958-.12-.28-.24-.57-.35-.86a1.03 1.03 0 010-.699c.11-.29.23-.58.35-.86a11.44 11.44 0 011.82-2.947C6.23 5.429 9.02 4 12 4c3.96 0 7.55 2.518 9.45 6.506v.01c.18.36.34.74.49 1.14zm-2.02.35c-.03-.08-.07-.15-.1-.23-.12-.29-.26-.56-.4-.83-.08-.14-.15-.29-.23-.43C17.56 7.729 14.89 6 12 6c-.65 0-1.29.11-1.91.28-1.3.4-2.48 1.079-3.47 1.968-.07.06-.14.11-.2.18-.07.06-.14.14-.21.21a10.87 10.87 0 00-2.08 3.228c-.01.05-.04.09-.05.14.01.04.04.09.05.13a10.49 10.49 0 002.08 3.228c.07.07.13.15.21.22.06.06.14.12.2.18a9.41 9.41 0 003.47 1.968c.62.17 1.26.28 1.91.28 2.89 0 5.56-1.729 7.19-4.517.08-.14.16-.28.23-.43.14-.27.27-.54.4-.83.04-.08.07-.159.1-.229z"/></svg>
